assets/images/script/m-7-e3.svg

<svg fill="none" height="242" viewBox="0 0 162 242" width="162" xmlns="http://www.w3.org/2000/svg"><path d="m113.22 3.95369c-30.141-1.83785-59.6304-.00003-90.2994.04927-11.9582.01922-24.03646.13835-18.56481 3.17815 7.49651 4.16479 12.85691 10.90619 17.00531 17.68869 15.4272 25.2222 28.4332 33.9501 39.4317 61.3831 13.376 33.3631 27.0716 71.5641 23.0203 108.1211-1.9842 17.906-8.695 32.906-26.5848 41.685-13.7583 6.751-30.1458-.848-30.8175-16.635-.9222-21.67 15.0376-32.597 27.1788-49.036 19.2182-26.021 39.9336-50.958 59.7044-76.5607 15.189-19.6698 34.747-40.0098 44.11-63.4174 1.403-3.5086 2.085-7.0726 1.708-10.8418-.018-.1749-1.112-6.156-2.376-3.4159-5.88 12.7385-3.383 33.3679-3.713 46.7833-.991 40.2955.72 80.6315-1.708 120.8935-.841 13.936-2.599 27.832-2.599 41.808 0 2.196.976-3.747 1.336-4.827" stroke="#000" stroke-linecap="round" stroke-width="5"/></svg>

<svg width="162" height="242" viewBox="0 0 162 242" fill="none" xmlns="http://www.w3.org/2000/svg">
<path d="M113.22 3.95369C83.079 2.11584 53.5896 3.95366 22.9206 4.00296C10.9624 4.02218 -1.11586 4.14131 4.35579 7.18111C11.8523 11.3459 17.2127 18.0873 21.3611 24.8698C36.7883 50.092 49.7943 58.8199 60.7928 86.2529C74.1688 119.616 87.8644 157.817 83.8131 194.374C81.8289 212.28 75.1181 227.28 57.2283 236.059C43.47 242.81 27.0825 235.211 26.4108 219.424C25.4886 197.754 41.4484 186.827 53.5896 170.388C72.8078 144.367 93.5232 119.43 113.294 93.8273C128.483 74.1575 148.041 53.8175 157.404 30.4099C158.807 26.9013 159.489 23.3373 159.112 19.5681C159.094 19.3932 158 13.4121 156.736 16.1522C150.856 28.8907 153.353 49.5201 153.023 62.9355C152.032 103.231 153.743 143.567 151.315 183.829C150.474 197.765 148.716 211.661 148.716 225.637C148.716 227.833 149.692 221.89 150.052 220.81" stroke="black" stroke-width="5" stroke-linecap="round"/>
</svg>
